X:1
T:[ID 2-76]
T:[ID 2-76]
T:Bezeichnung standardisiert: Menuet [mit Trio] Men\"uet Con Trio ex A.#
T:Urheber unbekannt Datum in der hier transkribierten schriftlichen Quelle: 1767
C:Urheber unbekannt
C:Datum in der hier transkribierten schriftlichen Quelle: 1767
L:1/8
M:3/4
K:A
V:1 treble 
V:1
 a2 A2 A2 | B4{cd} c2 | a2 f2 ef |{e} d4 c2 | B4 e^d | (fe)(gf)(ag) | bg e2 ^d2 |{^d} e6 :: %8
 e4 (3cde |{e} d4 (3Bcd | ceea dc |{c} B4 ED | CEAGBA | cBdcea | (3fed c2 B2 |{B} A6 :| %16
"^Trio" !fermata!e3 f e2 | e3 f e2 | ea c'2 e2 |{e} d4 c2 | B3 d cA | G3 B A2 | (3cde d2 c2 | %23
{B} A6 :: e3 f e2 | edcB c2 | d3 e d2 | (dc)(cB) B2 | c3 d c2 | agfedc | (3fed c2 B2 |{B} A6 :| %32

